X:3
T:American Patrol
R:March
C:F W Meacham 1885
M:4/4
L:1/8
K:G
D2 |: G2G2 GFGA | B2B2 BABc | d2d2 d^cdg |d4 z2 B2 |
   | c2 cB A2 c2 | B2 BA G2 B2 | A2E2F2G2 | ABcB ADEF |
   |G2G2 GFGA | B2B2 BABc | d2d2 d^cdg | d4z2 G2 |
   | e2d2c2 B2 | A2G2F2G2 | A2 Bc B2A2 | G2 DEFG AB |
   |c2c2c2c2 |cB c4 ^c2 | d2d2 dcBc| d6 B2 |
   | c2c2c2c2 | cB c4 ^c2| d2d2 dcBc | d6 d2|
   | e2e2 g3e | d2 de dcB2 |c2c2 F3 c | B2 Bc BA G2 |
   |  e2e2 g3e| d2 de dc B2 | c2c2 F2A2 |G6 D2:|
